modules/feathericon/icons/delete-link.svg

<?xml version="1.0" encoding="UTF-8"?>
<svg width="14px" height="6px" viewBox="0 0 14 6" version="1.1" xmlns="http://www.w3.org/2000/svg" xmlns:xlink="http://www.w3.org/1999/xlink">
    <!-- Generator: sketchtool 48.1 (47250) - http://www.bohemiancoding.com/sketch -->
    <title>delete-link</title>
    <desc>Created with sketchtool.</desc>
    <defs></defs>
    <g id="text-edit" stroke="none" stroke-width="1" fill="none" fill-rule="evenodd">
        <g id="delete-link" fill="#000000">
            <path d="M6,1 L3,1 C1.8954305,1 1,1.8954305 1,3 C1,4.1045695 1.8954305,5 3,5 L6,5 L6,6 L3,6 C1.34314575,6 -2.27373675e-13,4.65685425 -2.27373675e-13,3 C-2.27373675e-13,1.34314575 1.34314575,0 3,0 L6,0 L6,1 Z M8,5 L11,5 C12.1045695,5 13,4.1045695 13,3 C13,1.8954305 12.1045695,1 11,1 L8,1 L8,0 L11,0 C12.6568542,0 14,1.34314575 14,3 C14,4.65685425 12.6568542,6 11,6 L8,6 L8,5 Z M9,4 C8.70227045,4 8,4 8,4 L8,2 C8,2 8.44771525,2 9,2 C9.55228475,2 10,2.44771525 10,3 C10,3.55228475 9.55228475,4 9,4 Z M5,4 C4.44771525,4 4,3.55228475 4,3 C4,2.44771525 4.44771525,2 5,2 C5.55228475,2 6,2 6,2 L6,4 C6,4 5.29772955,4 5,4 Z" id="Shape"></path>
        </g>
    </g>
</svg>

<svg width="14" height="6" viewBox="0 0 14 6" xmlns="http://www.w3.org/2000/svg"><path d="M6 1H3a2 2 0 1 0 0 4h3v1H3a3 3 0 1 1 0-6h3v1zm2 4h3a2 2 0 1 0 0-4H8V0h3a3 3 0 0 1 0 6H8V5zm1-1H8V2h1a1 1 0 1 1 0 2zM5 4a1 1 0 1 1 0-2h1v2H5z" fill="#000" fill-rule="evenodd"/></svg>
